static/assets/img/icons/theme/cooking/spoon.svg

<svg height="24" viewBox="0 0 24 24" width="24" xmlns="http://www.w3.org/2000/svg"><g fill="none" fill-rule="evenodd"><path d="m0 0h24v24h-24z" opacity="0"/><path d="m9.37867966 12.9142136.70710674.7071067c.3905243.3905243.3905243 1.0236893 0 1.4142136l-4.94974743 4.9497475c-.39052429.3905243-1.02368927.3905243-1.41421356 0l-.70710678-.7071068c-.3905243-.3905243-.3905243-1.0236893 0-1.4142136l4.94974746-4.9497474c.3905243-.3905243 1.02368927-.3905243 1.41421357 0z" fill="#000" opacity=".3"/><path d="m11.1464466 11.8535534c1.7573593 1.7573593 4.6066017 1.7573593 6.363961 0 1.7573594-1.7573593 3.5251263-6.37436868 1.767767-8.13172799-1.7573593-1.75735932-6.3743687.01040764-8.131728 1.76776695s-1.7573593 4.60660174 0 6.36396104z" fill="#000"/><path d="m17.6252814 5.50664746c.9579496 1.11268523-.0918864 3.81977514-1.135669 4.86355764-.9986956.9986956-2.5788006 1.061627-3.6507695.1887941z" fill="#fff"/></g></svg>

<svg width="24px" height="24px" viewBox="0 0 24 24" version="1.1" xmlns="http://www.w3.org/2000/svg" xmlns:xlink="http://www.w3.org/1999/xlink">
    <title>Icon For Spoon</title>
    <g stroke="none" stroke-width="1" fill="none" fill-rule="evenodd">
        <rect opacity="0" x="0" y="0" width="24" height="24"></rect>
        <path d="M9.37867966,12.9142136 L10.0857864,13.6213203 C10.4763107,14.0118446 10.4763107,14.6450096 10.0857864,15.0355339 L5.13603897,19.9852814 C4.74551468,20.3758057 4.1123497,20.3758057 3.72182541,19.9852814 L3.01471863,19.2781746 C2.62419433,18.8876503 2.62419433,18.2544853 3.01471863,17.863961 L7.96446609,12.9142136 C8.35499039,12.5236893 8.98815536,12.5236893 9.37867966,12.9142136 Z" fill="#000000" opacity="0.3"></path>
        <path d="M11.1464466,11.8535534 C12.9038059,13.6109127 15.7530483,13.6109127 17.5104076,11.8535534 C19.267767,10.0961941 21.0355339,5.47918472 19.2781746,3.72182541 C17.5208153,1.96446609 12.9038059,3.73223305 11.1464466,5.48959236 C9.3890873,7.24695167 9.3890873,10.0961941 11.1464466,11.8535534 Z" fill="#000000"></path>
        <path d="M17.6252814,5.50664746 C18.583231,6.61933269 17.533395,9.3264226 16.4896124,10.3702051 C15.4909168,11.3689007 13.9108118,11.4318321 12.8388429,10.5589992 L17.6252814,5.50664746 Z" fill="#FFFFFF"></path>
    </g>
</svg>
